X:6224
T:Spotted Bitch,The. JMT026
O:england
M:4/4
L:1/8
Q:200
C:James Hill
S:J.Moore,Tyneside,1841.(19)
R:Hornpipe
A:Northumbria
N:Accredited to James Hill in the M
H:184
K:A
cB|A-EAc B-EBd|c-edfe2ef|f-ace d-fBd|c-Adcc2Bc|A-EAc B-EBd|c-edfe2ef|e-
ace d-fBd|c-BAGA2:|
|:G-A|B-ABc d-cBA|B-dFB A-FED|C-EAc e-cfd|c-Adcc2Bf|a-gbg a-gfe|f-eaf e
-dcB|A-dfe d-cBA|c-BAGA2:|]
